src/pos-icons/garage-variant.svg

<svg height="24" viewBox="0 0 24 24" width="24" xmlns="http://www.w3.org/2000/svg"><path d="m22 9v11h-2v-9h-16v9h-2v-11l10-4zm-3 3h-14v2h14zm0 6h-14v2h14zm0-3h-14v2h14z"/></svg>

<?xml version="1.0" encoding="UTF-8"?><!DOCTYPE svg PUBLIC "-//W3C//DTD SVG 1.1//EN" "http://www.w3.org/Graphics/SVG/1.1/DTD/svg11.dtd"><svg xmlns="http://www.w3.org/2000/svg" xmlns:xlink="http://www.w3.org/1999/xlink" version="1.1" id="mdi-garage-variant" width="24" height="24" viewBox="0 0 24 24"><path d="M22 9V20H20V11H4V20H2V9L12 5L22 9M19 12H5V14H19V12M19 18H5V20H19V18M19 15H5V17H19V15Z" /></svg>
